Gruvbox-Plus-Dark/actions/16/mail-folder-sent.svg

<svg xmlns="http://www.w3.org/2000/svg" width="16" height="16" viewBox="0 0 16 16">
 <defs>
  <style id="current-color-scheme" type="text/css">
   .ColorScheme-Text { color:#ebdbb2; } .ColorScheme-Highlight { color:#458588; }
  </style>
 </defs>
 <path style="fill:currentColor" class="ColorScheme-Text" d="M 1.84375 1.0097656 C 1.56245 1.0565656 1 1.2597656 1 2.0097656 L 1 13.009766 C 1 13.009766 1 14.009766 2 14.009766 L 14 14.009766 C 14 14.009766 15 14.009766 15 13.009766 L 15 4.0097656 C 15 3.0097656 14 3.0097656 14 3.0097656 L 9 3.0097656 L 7 1.0097656 L 2 1.0097656 C 2 1.0097656 1.93745 0.99413563 1.84375 1.0097656 z M 8.3085938 4 C 8.8449938 4 9.3375625 4.0836 9.7890625 4.25 C 10.240963 4.4131 10.629078 4.6490844 10.955078 4.9589844 C 11.284078 5.2655844 11.540609 5.6396781 11.724609 6.0800781 C 11.907609 6.5203781 12 7.0151063 12 7.5664062 C 12 7.8763062 11.960812 8.1830281 11.882812 8.4863281 C 11.807813 8.7897281 11.693109 9.0632875 11.537109 9.3046875 C 11.381109 9.5427875 11.183313 9.7367187 10.945312 9.8867188 C 10.711313 10.034019 10.434234 10.105469 10.115234 10.105469 C 9.9864344 10.105469 9.8654 10.0925 9.75 10.0625 C 9.638 10.0305 9.5344531 9.9850875 9.4394531 9.9296875 C 9.3443531 9.8709875 9.2606531 9.8054687 9.1894531 9.7304688 C 9.1214531 9.6521687 9.06865 9.5659094 9.03125 9.4746094 L 8.9550781 9.4746094 C 8.8905781 9.5562094 8.8152688 9.6366437 8.7304688 9.7148438 C 8.6455688 9.7899438 8.5506125 9.8573156 8.4453125 9.9160156 C 8.3401125 9.9747156 8.22265 10.020641 8.09375 10.056641 C 7.96805 10.088641 7.8310406 10.105469 7.6816406 10.105469 C 7.3999406 10.105469 7.1484344 10.05995 6.9277344 9.96875 C 6.7105344 9.87415 6.5283062 9.7418656 6.3789062 9.5722656 C 6.2295063 9.3993656 6.1152094 9.1952313 6.0371094 8.9570312 C 5.9590094 8.7156312 5.9199219 8.4485031 5.9199219 8.1582031 C 5.9199219 7.8222031 5.972925 7.514875 6.078125 7.234375 C 6.183425 6.953775 6.33445 6.7119656 6.53125 6.5097656 C 6.72815 6.3042656 6.9663469 6.1460562 7.2480469 6.0351562 C 7.5298469 5.9209562 7.8457125 5.8632812 8.1953125 5.8632812 C 8.3481125 5.8632812 8.5070219 5.8723719 8.6699219 5.8886719 C 8.8329219 5.9049719 8.9892719 5.927025 9.1386719 5.953125 C 9.2913719 5.979225 9.4340062 6.0084156 9.5664062 6.0410156 C 9.6988063 6.0736156 9.81125 6.1060719 9.90625 6.1386719 L 9.8007812 8.1875 C 9.7937813 8.2593 9.7890625 8.3299375 9.7890625 8.3984375 L 9.7890625 8.53125 C 9.7890625 8.66835 9.7999125 8.7811406 9.8203125 8.8691406 C 9.8441125 8.9572406 9.87235 9.025925 9.90625 9.078125 C 9.94365 9.127125 9.9854969 9.1621406 10.029297 9.1816406 C 10.077297 9.2012406 10.126734 9.2109375 10.177734 9.2109375 C 10.296734 9.2109375 10.400281 9.166225 10.488281 9.078125 C 10.577281 8.990125 10.649031 8.8726563 10.707031 8.7226562 C 10.765031 8.5725562 10.806891 8.3961656 10.837891 8.1972656 C 10.867891 7.9949656 10.884766 7.7817406 10.884766 7.5566406 C 10.884766 7.1391406 10.820406 6.7676062 10.691406 6.4414062 C 10.562406 6.1152062 10.381391 5.8403344 10.150391 5.6152344 C 9.9232906 5.3902344 9.6517375 5.2189625 9.3359375 5.1015625 C 9.0202375 4.9840625 8.6785938 4.9238281 8.3085938 4.9238281 C 7.7891937 4.9238281 7.3307937 5.0075281 6.9335938 5.1738281 C 6.5397938 5.3402281 6.2075531 5.5729469 5.9394531 5.8730469 C 5.6746531 6.1699469 5.4731844 6.5239406 5.3339844 6.9316406 C 5.1981844 7.3394406 5.1308594 7.7853844 5.1308594 8.2714844 C 5.1308594 8.7215844 5.1897938 9.1217031 5.3085938 9.4707031 C 5.4273938 9.8165031 5.6036906 10.107703 5.8378906 10.345703 C 6.0720906 10.580703 6.360325 10.760766 6.703125 10.884766 C 7.046025 11.004766 7.442525 11.066406 7.890625 11.066406 C 8.080725 11.066406 8.2762625 11.05425 8.4765625 11.03125 C 8.6767625 11.00825 8.8753656 10.9765 9.0722656 10.9375 C 9.2725656 10.8975 9.4681031 10.851875 9.6582031 10.796875 C 9.8517031 10.740875 10.034031 10.680234 10.207031 10.615234 L 10.207031 11.554688 C 9.8879312 11.691688 9.5329781 11.798953 9.1425781 11.876953 C 8.7555781 11.958953 8.3416906 12 7.9003906 12 C 7.2858906 12 6.7354 11.916094 6.25 11.746094 C 5.7679 11.580094 5.3619969 11.338484 5.0292969 11.021484 C 4.6965969 10.705484 4.442225 10.318028 4.265625 9.8613281 C 4.089125 9.4014281 4 8.8813812 4 8.3007812 C 4 7.8962813 4.0451188 7.509225 4.1367188 7.140625 C 4.2284188 6.768825 4.3619563 6.425775 4.5351562 6.109375 C 4.7082562 5.789675 4.9182156 5.4998875 5.1660156 5.2421875 C 5.4172156 4.9811875 5.7023844 4.760825 6.0214844 4.578125 C 6.3405844 4.392225 6.6925719 4.2502438 7.0761719 4.1523438 C 7.4597719 4.0512438 7.8706938 4 8.3085938 4 z M 8.1953125 6.7539062 C 7.9950125 6.7539062 7.8267 6.7953531 7.6875 6.8769531 C 7.5483 6.9584531 7.4340031 7.0655188 7.3457031 7.1992188 C 7.2608031 7.3330187 7.1989031 7.4872562 7.1582031 7.6601562 C 7.1209031 7.8297562 7.1015625 8.0016344 7.1015625 8.1777344 C 7.1015625 8.5431344 7.1659219 8.8076031 7.2949219 8.9707031 C 7.4239219 9.1305031 7.5946938 9.2109375 7.8085938 9.2109375 C 7.9511937 9.2109375 8.0738813 9.1791875 8.1757812 9.1171875 C 8.2809812 9.0518875 8.3651875 8.9638094 8.4296875 8.8496094 C 8.4975875 8.7322094 8.5500844 8.5933938 8.5839844 8.4335938 C 8.6212844 8.2704937 8.6440969 8.089625 8.6542969 7.890625 L 8.7148438 6.8085938 C 8.6469438 6.7922937 8.5681625 6.7793312 8.4765625 6.7695312 C 8.3848625 6.7597312 8.2904125 6.7539063 8.1953125 6.7539062 z"/>
</svg>

<svg width="16" height="16" version="1.1" viewBox="0 0 16 16" xmlns="http://www.w3.org/2000/svg">
  <defs>
    <style type="text/css">.ColorScheme-Text { color:#ebdbb2; } .ColorScheme-Highlight { color:#458588; }</style>
  </defs>
  <path class="ColorScheme-Text" d="m1.844 1.01c-0.2813 0.0468-0.8438 0.25-0.8438 1v11s0 1 1 1h12s1 0 1-1v-9c0-1-1-1-1-1h-5l-2-2h-5s-0.06255-0.01563-0.1562 0zm6.465 2.99c0.5364 0 1.029 0.0836 1.48 0.25 0.4519 0.1631 0.84 0.3991 1.166 0.709 0.329 0.3066 0.5855 0.6807 0.7695 1.121 0.183 0.4403 0.2754 0.935 0.2754 1.486 0 0.3099-0.03919 0.6166-0.1172 0.9199-0.075 0.3034-0.1897 0.577-0.3457 0.8184-0.156 0.2381-0.3538 0.432-0.5918 0.582-0.234 0.1473-0.5111 0.2188-0.8301 0.2188-0.1288 0-0.2498-0.01297-0.3652-0.04297-0.112-0.032-0.2155-0.07741-0.3105-0.1328-0.0951-0.0587-0.1788-0.1242-0.25-0.1992-0.068-0.0783-0.1208-0.1646-0.1582-0.2559h-0.07617c-0.0645 0.0816-0.1398 0.162-0.2246 0.2402-0.0849 0.0751-0.1799 0.1425-0.2852 0.2012-0.1052 0.0587-0.2227 0.1046-0.3516 0.1406-0.1257 0.032-0.2627 0.04883-0.4121 0.04883-0.2817 0-0.5332-0.04552-0.7539-0.1367-0.2172-0.0946-0.3994-0.2269-0.5488-0.3965-0.1494-0.1729-0.2637-0.377-0.3418-0.6152-0.0781-0.2414-0.1172-0.5085-0.1172-0.7988 0-0.336 0.053-0.6433 0.1582-0.9238 0.1053-0.2806 0.2563-0.5224 0.4531-0.7246 0.1969-0.2055 0.4351-0.3637 0.7168-0.4746 0.2818-0.1142 0.5977-0.1719 0.9473-0.1719 0.1528 0 0.3117 0.009091 0.4746 0.02539 0.163 0.0163 0.3194 0.03835 0.4688 0.06445 0.1527 0.0261 0.2953 0.05529 0.4277 0.08789s0.2448 0.06506 0.3398 0.09766l-0.1055 2.049c-7e-3 0.0718-0.01172 0.1424-0.01172 0.2109v0.1328c0 0.1371 0.01085 0.2499 0.03125 0.3379 0.0238 0.0881 0.05204 0.1568 0.08594 0.209 0.0374 0.049 0.07925 0.08402 0.123 0.1035 0.048 0.0196 0.09744 0.0293 0.1484 0.0293 0.119 0 0.2225-0.04471 0.3105-0.1328 0.089-0.088 0.1608-0.2055 0.2188-0.3555 0.058-0.1501 0.09986-0.3265 0.1309-0.5254 0.03-0.2023 0.04688-0.4155 0.04688-0.6406 0-0.4175-0.06436-0.789-0.1934-1.115s-0.31-0.6011-0.541-0.8262c-0.2271-0.225-0.4987-0.3963-0.8145-0.5137-0.3157-0.1175-0.6573-0.1777-1.027-0.1777-0.5194 0-0.9778 0.0837-1.375 0.25-0.3938 0.1664-0.726 0.3991-0.9941 0.6992-0.2648 0.2969-0.4663 0.6509-0.6055 1.059-0.1358 0.4078-0.2031 0.8537-0.2031 1.34 0 0.4501 0.05893 0.8502 0.1777 1.199 0.1188 0.3458 0.2951 0.637 0.5293 0.875 0.2342 0.235 0.5224 0.4151 0.8652 0.5391 0.3429 0.12 0.7394 0.1816 1.188 0.1816 0.1901 0 0.3856-0.01216 0.5859-0.03516 0.2002-0.023 0.3988-0.05475 0.5957-0.09375 0.2003-0.04 0.3958-0.08562 0.5859-0.1406 0.1935-0.056 0.3758-0.1166 0.5488-0.1816v0.9395c-0.3191 0.137-0.6741 0.2443-1.064 0.3223-0.387 0.082-0.8009 0.123-1.242 0.123-0.6145 0-1.165-0.08391-1.65-0.2539-0.4821-0.166-0.888-0.4076-1.221-0.7246-0.3327-0.316-0.5871-0.7035-0.7637-1.16-0.1765-0.4599-0.2656-0.9799-0.2656-1.561 0-0.4045 0.04512-0.7916 0.1367-1.16 0.0917-0.3718 0.2252-0.7148 0.3984-1.031 0.1731-0.3197 0.3831-0.6095 0.6309-0.8672 0.2512-0.261 0.5364-0.4814 0.8555-0.6641 0.3191-0.1859 0.6711-0.3279 1.055-0.4258 0.3836-0.1011 0.7945-0.1523 1.232-0.1523zm-0.1133 2.754c-0.2003 0-0.3686 0.04145-0.5078 0.123-0.1392 0.0815-0.2535 0.1886-0.3418 0.3223-0.0849 0.1338-0.1468 0.288-0.1875 0.4609-0.0373 0.1696-0.05664 0.3415-0.05664 0.5176 0 0.3654 0.06436 0.6299 0.1934 0.793 0.129 0.1598 0.2998 0.2402 0.5137 0.2402 0.1426 0 0.2653-0.03175 0.3672-0.09375 0.1052-0.0653 0.1894-0.1534 0.2539-0.2676 0.0679-0.1174 0.1204-0.2562 0.1543-0.416 0.0373-0.1631 0.06011-0.344 0.07031-0.543l0.06055-1.082c-0.0679-0.0163-0.1467-0.02926-0.2383-0.03906-0.0917-0.0098-0.1862-0.01562-0.2812-0.01562z" fill="currentColor"/>
</svg>
